X: 202
T: Variety is Charming
B: 204 Favourite Country Dances
N: Published by Straight & Skillern, London ca.1775
F: http://imslp.org/wiki/204_Favourite_Country_Dances_(Various) p.101 #202
Z: 2014 John Chambers <jc:trillian.mit.edu>
M: C
L: 1/8
K: G
%  - - - - - - - - - - - - - - - - - - - - - - - - -
|: GDGB B2B2 | AGAB c2BA | GABc dedB | cAdB G2G,2 :|\
|: gGGA B2B2 | aAAB c2BA | gGGA Bcde | cAdB G2G,2 :|
%  - - - - - - - - - - - - - - - - - - - - - - - - -
%%begintext align
%% Cast off 2 Cu. l| cast up again .|. Cross over
%% 2 Cu. :|. lead up to the top & cast off :|: swing
%% Corners with your right hand & Partners with
%% left hands .|: lead thro the 3d Cu. cast up &
%% turn your Partner :|. lead thro the top Cu.
%% cast off and turn your Partner :||:
%%endtext

%%sep 1 1 500
%%sep 1 1 500
